X: 149
T: Das Sternlein (F)
C: David Schonfeld
N: Yet another variant of Twinkle Twinkle Little Star
M: 23/44
L: 1/4
K: F
|: "F"F F |     c2 c | "Bb"d d | "F"c2 c |"C7"B B | "F"A "Dm"A | "Gm"G "C7"G | "F"F2  z :|
[| "F"c c | "C7"B2 B |  "F"A A |"C7"G2 G | "F"c c |"C7"B     B |  "F"A     A | "C7"G2 G ||
|| "F"F F |     c2 c | "Bb"d d | "F"c2 c |"C7"B B | "F"A "Dm"A | "Gm"G "C7"G | "F"F2  z |]
%%sep 2 1 500
